<?xml version="1.0" encoding="UTF-8"?>
<map version="1.2" tiledversion="1.9.2" orientation="orthogonal" renderorder="right-down" width="40" height="20" tilewidth="32" tileheight="32" infinite="0">
 <tileset firstgid="1" source="beach.tsx"/>
 <properties>
  <property name="theme" value="tengerpart"/>
  <property name="description" value="Beach track with sand, water, and palm decorations."/>
 </properties>
 <layer name="Ground" width="40" height="20">
  <data encoding="csv">
0,0,0,0,0,0,0,0,0,0,0,0,0,0,0,0,0,0,0,0,0,0,0,0,0,0,0,0,0,0,0,0,0,0,0,0,0,0,0,0,
0,0,0,0,0,0,0,0,0,0,0,0,0,0,0,0,0,0,0,0,0,0,0,0,0,0,0,0,0,0,0,0,0,0,0,0,0,0,0,0,
0,0,0,0,0,0,0,0,0,0,0,0,0,0,0,0,0,0,0,0,0,0,0,0,0,0,0,0,0,0,0,0,0,0,0,0,0,0,0,0,
0,0,0,0,0,0,0,0,0,0,0,0,0,0,0,0,0,0,0,0,0,0,0,0,0,0,0,0,0,0,0,0,0,0,0,0,0,0,0,0,
0,0,0,0,0,0,0,0,0,0,0,0,0,0,0,0,0,0,0,0,0,0,0,0,0,0,0,0,0,0,0,0,0,0,0,0,0,0,0,0,
0,0,0,0,0,0,0,0,0,0,0,0,0,0,0,0,0,0,0,0,0,0,0,0,0,0,0,0,0,0,0,0,0,0,0,0,0,0,0,0,
0,0,0,0,0,0,0,0,0,0,0,0,0,0,0,0,0,0,0,0,0,0,0,0,0,0,0,0,0,0,0,0,0,0,0,0,0,0,0,0,
0,0,0,0,0,0,0,0,0,0,0,0,0,0,0,0,0,0,0,0,0,0,0,0,0,0,0,0,0,0,0,0,0,0,0,0,0,0,0,0,
0,0,0,0,0,0,0,0,0,0,0,0,0,0,0,0,0,0,0,0,0,0,0,0,0,0,0,0,0,0,0,0,0,0,0,0,0,0,0,0,
0,0,0,0,0,0,0,0,0,0,0,0,0,0,0,0,0,0,0,0,0,0,0,0,0,0,0,0,0,0,0,0,0,0,0,0,0,0,0,0,
0,0,0,0,0,0,0,0,0,0,0,0,0,0,0,0,0,0,0,0,0,0,0,0,0,0,0,0,0,0,0,0,0,0,0,0,0,0,0,0,
0,0,0,0,0,0,0,0,0,0,0,0,0,0,0,0,0,0,0,0,0,0,0,0,0,0,0,0,0,0,0,0,0,0,0,0,0,0,0,0,
0,0,0,0,0,0,0,0,0,0,0,0,0,0,0,0,0,0,0,0,0,0,0,0,0,0,0,0,0,0,0,0,0,0,0,0,0,0,0,0,
0,0,0,0,0,0,0,0,0,0,0,0,0,0,0,0,0,0,0,0,0,0,0,0,0,0,0,0,0,0,0,0,0,0,0,0,0,0,0,0,
0,0,0,0,0,0,0,0,0,0,0,0,0,0,0,0,0,0,0,0,0,0,0,0,0,0,0,0,0,0,0,0,0,0,0,0,0,0,0,0,
0,0,0,0,0,0,0,0,0,0,0,0,0,0,0,0,0,0,0,0,0,0,0,0,0,0,0,0,0,0,0,0,0,0,0,0,0,0,0,0,
0,0,0,0,0,0,0,0,0,0,0,0,0,0,0,0,0,0,0,0,0,0,0,0,0,0,0,0,0,0,0,0,0,0,0,0,0,0,0,0,
0,0,0,0,0,0,0,0,0,0,0,0,0,0,0,0,0,0,0,0,0,0,0,0,0,0,0,0,0,0,0,0,0,0,0,0,0,0,0,0,
0,0,0,0,0,0,0,0,0,0,0,0,0,0,0,0,0,0,0,0,0,0,0,0,0,0,0,0,0,0,0,0,0,0,0,0,0,0,0,0,
0,0,0,0,0,0,0,0,0,0,0,0,0,0,0,0,0,0,0,0,0,0,0,0,0,0,0,0,0,0,0,0,0,0,0,0,0,0,0,0
  </data>
</layer>

 <layer name="Decor" width="40" height="20">
    <data encoding="csv">
51,52,53,54,55,56,57,58,59,60,61,62,63,51,52,53,54,55,56,57,58,59,60,61,62,63,51,52,53,54,55,56,57,58,59,60,61,62,63,51,
51,52,53,54,55,56,57,58,59,60,61,62,63,51,52,53,54,55,56,57,58,59,60,61,62,63,51,52,53,54,55,56,57,58,59,60,61,62,63,51,
51,52,53,54,55,56,57,58,59,60,61,62,63,51,52,53,54,55,56,57,58,59,60,61,62,63,51,52,53,54,55,56,57,58,59,60,61,62,63,51,
51,52,53,54,55,56,57,58,59,60,61,62,63,51,52,53,54,55,56,57,58,59,60,61,62,63,51,52,53,54,55,56,57,58,59,60,61,62,63,51,
51,52,53,54,55,56,57,58,59,60,61,62,63,51,52,53,54,55,56,57,58,59,60,61,62,63,51,52,53,54,55,56,57,58,59,60,61,62,63,51,
51,52,53,54,55,56,57,58,59,60,61,62,63,51,52,53,54,55,56,57,58,59,60,61,62,63,51,52,53,54,55,56,57,58,59,60,61,62,63,51,
51,52,53,54,55,56,57,58,59,60,61,62,63,51,52,53,54,55,56,57,58,59,60,61,62,63,51,52,53,54,55,56,57,58,59,60,61,62,63,51,
51,52,53,54,55,56,57,58,59,60,61,62,63,51,52,53,54,55,56,57,58,59,60,61,62,63,51,52,53,54,55,56,57,58,59,60,61,62,63,51,
51,52,53,54,55,56,57,58,59,60,61,62,63,51,52,53,54,55,56,57,58,59,60,61,62,63,51,52,53,54,55,56,57,58,59,60,61,62,63,51,
51,52,53,54,55,56,57,58,59,60,61,62,63,51,52,53,54,55,56,57,58,59,60,61,62,63,51,52,53,54,55,56,57,58,59,60,61,62,63,51,
51,52,53,54,55,56,57,58,59,60,61,62,63,51,52,53,54,55,56,57,58,59,60,61,62,63,51,52,53,54,55,56,57,58,59,60,61,62,63,51,
51,52,53,54,55,56,57,58,59,60,61,62,63,51,52,53,54,55,56,57,58,59,60,61,62,63,51,52,53,54,55,56,57,58,59,60,61,62,63,51,
51,52,53,54,55,56,57,58,59,60,61,62,63,51,52,53,54,55,56,57,58,59,60,61,62,63,51,52,53,54,55,56,57,58,59,60,61,62,63,51,
51,52,53,54,55,56,57,58,59,60,61,62,63,51,52,53,54,55,56,57,58,59,60,61,62,63,51,52,53,54,55,56,57,58,59,60,61,62,63,51,
51,52,53,54,55,56,57,58,59,60,61,62,63,51,52,53,54,55,56,57,58,59,60,61,62,63,51,52,53,54,55,56,57,58,59,60,61,62,63,51,
51,52,53,54,55,56,57,58,59,60,61,62,63,51,52,53,54,55,56,57,58,59,60,61,62,63,51,52,53,54,55,56,57,58,59,60,61,62,63,51,
51,52,53,54,55,56,57,58,59,60,61,62,63,51,52,53,54,55,56,57,58,59,60,61,62,63,51,52,53,54,55,56,57,58,59,60,61,62,63,51,
51,52,53,54,55,56,57,58,59,60,61,62,63,51,52,53,54,55,56,57,58,59,60,61,62,63,51,52,53,54,55,56,57,58,59,60,61,62,63,51,
51,52,53,54,55,56,57,58,59,60,61,62,63,51,52,53,54,55,56,57,58,59,60,61,62,63,51,52,53,54,55,56,57,58,59,60,61,62,63,51,
51,52,53,54,55,56,57,58,59,60,61,62,63,51,52,53,54,55,56,57,58,59,60,61,62,63,51,52,53,54,55,56,57,58,59,60,61,62,63,51
</data>
 </layer>
</map>
