<?xml version="1.0" encoding="UTF-8"?>
<map version="1.2" tiledversion="1.9.2" orientation="orthogonal" renderorder="right-down" width="40" height="20" tilewidth="32" tileheight="32" infinite="0">
 <tileset firstgid="1" source="city.tsx"/>
 <properties>
    <property name="theme" value="ejszakai_varos"/>
    <property name="description" value="Night city track with asphalt, neon lights, and buildings."/>
 </properties>
 <layer name="Ground" width="40" height="20">
   <data encoding="csv">
0,0,0,0,0,0,0,0,0,0,0,0,0,0,0,0,0,0,0,0,0,0,0,0,0,0,0,0,0,0,0,0,0,0,0,0,0,0,0,0,
0,0,0,0,0,0,0,0,0,0,0,0,0,0,0,0,0,0,0,0,0,0,0,0,0,0,0,0,0,0,0,0,0,0,0,0,0,0,0,0,
0,0,0,0,0,0,0,0,0,0,0,0,0,0,0,0,0,0,0,0,0,0,0,0,0,0,0,0,0,0,0,0,0,0,0,0,0,0,0,0,
0,0,0,0,0,0,0,0,0,0,0,0,0,0,0,0,0,0,0,0,0,0,0,0,0,0,0,0,0,0,0,0,0,0,0,0,0,0,0,0,
0,0,0,0,0,0,0,0,0,0,0,0,0,0,0,0,0,0,0,0,0,0,0,0,0,0,0,0,0,0,0,0,0,0,0,0,0,0,0,0,
0,0,0,0,0,0,0,0,0,0,0,0,0,0,0,0,0,0,0,0,0,0,0,0,0,0,0,0,0,0,0,0,0,0,0,0,0,0,0,0,
0,0,0,0,0,0,0,0,0,0,0,0,0,0,0,0,0,0,0,0,0,0,0,0,0,0,0,0,0,0,0,0,0,0,0,0,0,0,0,0,
0,0,0,0,0,0,0,0,0,0,0,0,0,0,0,0,0,0,0,0,0,0,0,0,0,0,0,0,0,0,0,0,0,0,0,0,0,0,0,0,
0,0,0,0,0,0,0,0,0,0,0,0,0,0,0,0,0,0,0,0,0,0,0,0,0,0,0,0,0,0,0,0,0,0,0,0,0,0,0,0,
0,0,0,0,0,0,0,0,0,0,0,0,0,0,0,0,0,0,0,0,0,0,0,0,0,0,0,0,0,0,0,0,0,0,0,0,0,0,0,0,
0,0,0,0,0,0,0,0,0,0,0,0,0,0,0,0,0,0,0,0,0,0,0,0,0,0,0,0,0,0,0,0,0,0,0,0,0,0,0,0,
0,0,0,0,0,0,0,0,0,0,0,0,0,0,0,0,0,0,0,0,0,0,0,0,0,0,0,0,0,0,0,0,0,0,0,0,0,0,0,0,
0,0,0,0,0,0,0,0,0,0,0,0,0,0,0,0,0,0,0,0,0,0,0,0,0,0,0,0,0,0,0,0,0,0,0,0,0,0,0,0,
0,0,0,0,0,0,0,0,0,0,0,0,0,0,0,0,0,0,0,0,0,0,0,0,0,0,0,0,0,0,0,0,0,0,0,0,0,0,0,0,
0,0,0,0,0,0,0,0,0,0,0,0,0,0,0,0,0,0,0,0,0,0,0,0,0,0,0,0,0,0,0,0,0,0,0,0,0,0,0,0,
0,0,0,0,0,0,0,0,0,0,0,0,0,0,0,0,0,0,0,0,0,0,0,0,0,0,0,0,0,0,0,0,0,0,0,0,0,0,0,0,
0,0,0,0,0,0,0,0,0,0,0,0,0,0,0,0,0,0,0,0,0,0,0,0,0,0,0,0,0,0,0,0,0,0,0,0,0,0,0,0,
0,0,0,0,0,0,0,0,0,0,0,0,0,0,0,0,0,0,0,0,0,0,0,0,0,0,0,0,0,0,0,0,0,0,0,0,0,0,0,0,
0,0,0,0,0,0,0,0,0,0,0,0,0,0,0,0,0,0,0,0,0,0,0,0,0,0,0,0,0,0,0,0,0,0,0,0,0,0,0,0,
0,0,0,0,0,0,0,0,0,0,0,0,0,0,0,0,0,0,0,0,0,0,0,0,0,0,0,0,0,0,0,0,0,0,0,0,0,0,0,0
	</data>
 </layer>
 <layer name="Decor" width="40" height="20">
   <data encoding="csv">
91,92,93,94,95,96,97,98,99,100,101,102,103,91,92,93,94,95,96,97,98,99,100,101,102,103,91,92,93,94,95,96,97,98,99,100,101,102,103,91,
91,92,93,94,95,96,97,98,99,100,101,102,103,91,92,93,94,95,96,97,98,99,100,101,102,103,91,92,93,94,95,96,97,98,99,100,101,102,103,91,
91,92,93,94,95,96,97,98,99,100,101,102,103,91,92,93,94,95,96,97,98,99,100,101,102,103,91,92,93,94,95,96,97,98,99,100,101,102,103,91,
91,92,93,94,95,96,97,98,99,100,101,102,103,91,92,93,94,95,96,97,98,99,100,101,102,103,91,92,93,94,95,96,97,98,99,100,101,102,103,91,
91,92,93,94,95,96,97,98,99,100,101,102,103,91,92,93,94,95,96,97,98,99,100,101,102,103,91,92,93,94,95,96,97,98,99,100,101,102,103,91,
91,92,93,94,95,96,97,98,99,100,101,102,103,91,92,93,94,95,96,97,98,99,100,101,102,103,91,92,93,94,95,96,97,98,99,100,101,102,103,91,
91,92,93,94,95,96,97,98,99,100,101,102,103,91,92,93,94,95,96,97,98,99,100,101,102,103,91,92,93,94,95,96,97,98,99,100,101,102,103,91,
91,92,93,94,95,96,97,98,99,100,101,102,103,91,92,93,94,95,96,97,98,99,100,101,102,103,91,92,93,94,95,96,97,98,99,100,101,102,103,91,
91,92,93,94,95,96,97,98,99,100,101,102,103,91,92,93,94,95,96,97,98,99,100,101,102,103,91,92,93,94,95,96,97,98,99,100,101,102,103,91,
91,92,93,94,95,96,97,98,99,100,101,102,103,91,92,93,94,95,96,97,98,99,100,101,102,103,91,92,93,94,95,96,97,98,99,100,101,102,103,91,
91,92,93,94,95,96,97,98,99,100,101,102,103,91,92,93,94,95,96,97,98,99,100,101,102,103,91,92,93,94,95,96,97,98,99,100,101,102,103,91,
91,92,93,94,95,96,97,98,99,100,101,102,103,91,92,93,94,95,96,97,98,99,100,101,102,103,91,92,93,94,95,96,97,98,99,100,101,102,103,91,
91,92,93,94,95,96,97,98,99,100,101,102,103,91,92,93,94,95,96,97,98,99,100,101,102,103,91,92,93,94,95,96,97,98,99,100,101,102,103,91,
91,92,93,94,95,96,97,98,99,100,101,102,103,91,92,93,94,95,96,97,98,99,100,101,102,103,91,92,93,94,95,96,97,98,99,100,101,102,103,91,
91,92,93,94,95,96,97,98,99,100,101,102,103,91,92,93,94,95,96,97,98,99,100,101,102,103,91,92,93,94,95,96,97,98,99,100,101,102,103,91,
91,92,93,94,95,96,97,98,99,100,101,102,103,91,92,93,94,95,96,97,98,99,100,101,102,103,91,92,93,94,95,96,97,98,99,100,101,102,103,91,
91,92,93,94,95,96,97,98,99,100,101,102,103,91,92,93,94,95,96,97,98,99,100,101,102,103,91,92,93,94,95,96,97,98,99,100,101,102,103,91,
91,92,93,94,95,96,97,98,99,100,101,102,103,91,92,93,94,95,96,97,98,99,100,101,102,103,91,92,93,94,95,96,97,98,99,100,101,102,103,91,
91,92,93,94,95,96,97,98,99,100,101,102,103,91,92,93,94,95,96,97,98,99,100,101,102,103,91,92,93,94,95,96,97,98,99,100,101,102,103,91,
91,92,93,94,95,96,97,98,99,100,101,102,103,91,92,93,94,95,96,97,98,99,100,101,102,103,91,92,93,94,95,96,97,98,99,100,101,102,103,91
   </data>
 </layer>
</map>