<?xml version="1.0" encoding="UTF-8"?>
<map version="1.10" tiledversion="1.10.2" orientation="orthogonal" renderorder="right-down" width="10" height="8" tilewidth="32" tileheight="32" infinite="0" nextlayerid="2" nextobjectid="1">
  <tileset firstgid="1" source="forest.tsx"/>
  <layer id="1" name="Ground" width="10" height="8">
    <data encoding="csv">
1,2,3,4,1,2,3,4,1,2,
5,6,7,8,5,6,7,8,5,6,
9,10,11,12,9,10,11,12,9,10,
13,14,15,16,13,14,15,16,13,14,
1,2,3,4,1,2,3,4,1,2,
5,6,7,8,5,6,7,8,5,6,
9,10,11,12,9,10,11,12,9,10,
13,14,15,16,13,14,15,16,13,14
    </data>
  </layer>
  <layer id="2" name="Decor" width="10" height="8">
    <data encoding="csv">
0,0,21,0,0,22,0,0,23,0,
24,0,0,25,0,0,26,0,0,27,
0,28,0,0,29,0,0,30,0,0,
31,0,0,32,0,0,33,0,0,34,
0,0,35,0,0,36,0,0,37,0,
38,0,0,39,0,0,40,0,0,41,
0,42,0,0,43,0,0,44,0,0,
45,0,0,46,0,0,47,0,0,48
    </data>
  </layer>
</map>
