<?xml version="1.0" encoding="UTF-8"?>
<map version="1.2" tiledversion="1.9.2" orientation="orthogonal" renderorder="right-down" width="40" height="20" tilewidth="32" tileheight="32" infinite="0">
 <tileset firstgid="1" source="mountain.tsx"/>
 <properties>
  <property name="theme" value="hegyek"/>
  <property name="description" value="Mountain track with rocks, pine trees, and snow patches."/>
 </properties>
 <layer name="Ground" width="40" height="20">
    <data encoding="csv">
0,0,0,0,0,0,0,0,0,0,0,0,0,0,0,0,0,0,0,0,0,0,0,0,0,0,0,0,0,0,0,0,0,0,0,0,0,0,0,0,
0,0,0,0,0,0,0,0,0,0,0,0,0,0,0,0,0,0,0,0,0,0,0,0,0,0,0,0,0,0,0,0,0,0,0,0,0,0,0,0,
0,0,0,0,0,0,0,0,0,0,0,0,0,0,0,0,0,0,0,0,0,0,0,0,0,0,0,0,0,0,0,0,0,0,0,0,0,0,0,0,
0,0,0,0,0,0,0,0,0,0,0,0,0,0,0,0,0,0,0,0,0,0,0,0,0,0,0,0,0,0,0,0,0,0,0,0,0,0,0,0,
0,0,0,0,0,0,0,0,0,0,0,0,0,0,0,0,0,0,0,0,0,0,0,0,0,0,0,0,0,0,0,0,0,0,0,0,0,0,0,0,
0,0,0,0,0,0,0,0,0,0,0,0,0,0,0,0,0,0,0,0,0,0,0,0,0,0,0,0,0,0,0,0,0,0,0,0,0,0,0,0,
0,0,0,0,0,0,0,0,0,0,0,0,0,0,0,0,0,0,0,0,0,0,0,0,0,0,0,0,0,0,0,0,0,0,0,0,0,0,0,0,
0,0,0,0,0,0,0,0,0,0,0,0,0,0,0,0,0,0,0,0,0,0,0,0,0,0,0,0,0,0,0,0,0,0,0,0,0,0,0,0,
0,0,0,0,0,0,0,0,0,0,0,0,0,0,0,0,0,0,0,0,0,0,0,0,0,0,0,0,0,0,0,0,0,0,0,0,0,0,0,0,
0,0,0,0,0,0,0,0,0,0,0,0,0,0,0,0,0,0,0,0,0,0,0,0,0,0,0,0,0,0,0,0,0,0,0,0,0,0,0,0,
0,0,0,0,0,0,0,0,0,0,0,0,0,0,0,0,0,0,0,0,0,0,0,0,0,0,0,0,0,0,0,0,0,0,0,0,0,0,0,0,
0,0,0,0,0,0,0,0,0,0,0,0,0,0,0,0,0,0,0,0,0,0,0,0,0,0,0,0,0,0,0,0,0,0,0,0,0,0,0,0,
0,0,0,0,0,0,0,0,0,0,0,0,0,0,0,0,0,0,0,0,0,0,0,0,0,0,0,0,0,0,0,0,0,0,0,0,0,0,0,0,
0,0,0,0,0,0,0,0,0,0,0,0,0,0,0,0,0,0,0,0,0,0,0,0,0,0,0,0,0,0,0,0,0,0,0,0,0,0,0,0,
0,0,0,0,0,0,0,0,0,0,0,0,0,0,0,0,0,0,0,0,0,0,0,0,0,0,0,0,0,0,0,0,0,0,0,0,0,0,0,0,
0,0,0,0,0,0,0,0,0,0,0,0,0,0,0,0,0,0,0,0,0,0,0,0,0,0,0,0,0,0,0,0,0,0,0,0,0,0,0,0,
0,0,0,0,0,0,0,0,0,0,0,0,0,0,0,0,0,0,0,0,0,0,0,0,0,0,0,0,0,0,0,0,0,0,0,0,0,0,0,0,
0,0,0,0,0,0,0,0,0,0,0,0,0,0,0,0,0,0,0,0,0,0,0,0,0,0,0,0,0,0,0,0,0,0,0,0,0,0,0,0,
0,0,0,0,0,0,0,0,0,0,0,0,0,0,0,0,0,0,0,0,0,0,0,0,0,0,0,0,0,0,0,0,0,0,0,0,0,0,0,0,
0,0,0,0,0,0,0,0,0,0,0,0,0,0,0,0,0,0,0,0,0,0,0,0,0,0,0,0,0,0,0,0,0,0,0,0,0,0,0,0
    </data>
 </layer>
 <layer name="Decor" width="40" height="20">
    <data encoding="csv">
71,72,73,74,75,76,77,78,79,80,81,82,83,71,72,73,74,75,76,77,78,79,80,81,82,83,71,72,73,74,75,76,77,78,79,80,81,82,83,71,
71,72,73,74,75,76,77,78,79,80,81,82,83,71,72,73,74,75,76,77,78,79,80,81,82,83,71,72,73,74,75,76,77,78,79,80,81,82,83,71,
71,72,73,74,75,76,77,78,79,80,81,82,83,71,72,73,74,75,76,77,78,79,80,81,82,83,71,72,73,74,75,76,77,78,79,80,81,82,83,71,
71,72,73,74,75,76,77,78,79,80,81,82,83,71,72,73,74,75,76,77,78,79,80,81,82,83,71,72,73,74,75,76,77,78,79,80,81,82,83,71,
71,72,73,74,75,76,77,78,79,80,81,82,83,71,72,73,74,75,76,77,78,79,80,81,82,83,71,72,73,74,75,76,77,78,79,80,81,82,83,71,
71,72,73,74,75,76,77,78,79,80,81,82,83,71,72,73,74,75,76,77,78,79,80,81,82,83,71,72,73,74,75,76,77,78,79,80,81,82,83,71,
71,72,73,74,75,76,77,78,79,80,81,82,83,71,72,73,74,75,76,77,78,79,80,81,82,83,71,72,73,74,75,76,77,78,79,80,81,82,83,71,
71,72,73,74,75,76,77,78,79,80,81,82,83,71,72,73,74,75,76,77,78,79,80,81,82,83,71,72,73,74,75,76,77,78,79,80,81,82,83,71,
71,72,73,74,75,76,77,78,79,80,81,82,83,71,72,73,74,75,76,77,78,79,80,81,82,83,71,72,73,74,75,76,77,78,79,80,81,82,83,71,
71,72,73,74,75,76,77,78,79,80,81,82,83,71,72,73,74,75,76,77,78,79,80,81,82,83,71,72,73,74,75,76,77,78,79,80,81,82,83,71,
71,72,73,74,75,76,77,78,79,80,81,82,83,71,72,73,74,75,76,77,78,79,80,81,82,83,71,72,73,74,75,76,77,78,79,80,81,82,83,71,
71,72,73,74,75,76,77,78,79,80,81,82,83,71,72,73,74,75,76,77,78,79,80,81,82,83,71,72,73,74,75,76,77,78,79,80,81,82,83,71,
71,72,73,74,75,76,77,78,79,80,81,82,83,71,72,73,74,75,76,77,78,79,80,81,82,83,71,72,73,74,75,76,77,78,79,80,81,82,83,71,
71,72,73,74,75,76,77,78,79,80,81,82,83,71,72,73,74,75,76,77,78,79,80,81,82,83,71,72,73,74,75,76,77,78,79,80,81,82,83,71,
71,72,73,74,75,76,77,78,79,80,81,82,83,71,72,73,74,75,76,77,78,79,80,81,82,83,71,72,73,74,75,76,77,78,79,80,81,82,83,71,
71,72,73,74,75,76,77,78,79,80,81,82,83,71,72,73,74,75,76,77,78,79,80,81,82,83,71,72,73,74,75,76,77,78,79,80,81,82,83,71,
71,72,73,74,75,76,77,78,79,80,81,82,83,71,72,73,74,75,76,77,78,79,80,81,82,83,71,72,73,74,75,76,77,78,79,80,81,82,83,71,
71,72,73,74,75,76,77,78,79,80,81,82,83,71,72,73,74,75,76,77,78,79,80,81,82,83,71,72,73,74,75,76,77,78,79,80,81,82,83,71,
71,72,73,74,75,76,77,78,79,80,81,82,83,71,72,73,74,75,76,77,78,79,80,81,82,83,71,72,73,74,75,76,77,78,79,80,81,82,83,71,
71,72,73,74,75,76,77,78,79,80,81,82,83,71,72,73,74,75,76,77,78,79,80,81,82,83,71,72,73,74,75,76,77,78,79,80,81,82,83,71
    </data>
 </layer>
</map>
