<?xml version="1.0" encoding="UTF-8"?>
<map version="1.10" tiledversion="1.10.2" orientation="orthogonal" renderorder="right-down" width="20" height="12" tilewidth="32" tileheight="32" infinite="0" nextlayerid="3" nextobjectid="1">
  <tileset firstgid="1" source="forest.tsx"/>
  <layer id="1" name="Ground" width="20" height="12">
    <data encoding="csv">
1,1,1,1,1,1,1,1,1,1,1,1,1,1,1,1,1,1,1,1,
1,2,2,2,2,2,2,2,2,2,2,2,2,2,2,2,2,2,2,1,
1,2,3,3,3,3,3,3,3,3,3,3,3,3,3,3,3,3,2,1,
1,2,3,4,4,4,4,4,4,4,4,4,4,4,4,4,4,3,2,1,
1,2,3,4,5,5,5,5,5,5,5,5,5,5,5,5,4,3,2,1,
1,2,3,4,5,6,6,6,6,6,6,6,6,6,6,5,4,3,2,1,
1,2,3,4,5,6,7,7,7,7,7,7,7,7,6,5,4,3,2,1,
1,2,3,4,5,6,7,8,8,8,8,8,8,7,6,5,4,3,2,1,
1,2,3,4,5,6,7,8,9,9,9,9,8,7,6,5,4,3,2,1,
1,2,3,4,5,6,7,8,9,10,10,9,8,7,6,5,4,3,2,1,
1,2,2,2,2,2,2,2,2,2,2,2,2,2,2,2,2,2,2,1,
1,1,1,1,1,1,1,1,1,1,1,1,1,1,1,1,1,1,1,1
    </data>
  </layer>
  <layer id="2" name="Details" width="20" height="12" opacity="0.85">
    <data encoding="csv">
0,0,0,0,0,0,0,0,0,0,0,0,0,0,0,0,0,0,0,0,
0,0,0,0,11,0,0,0,12,0,0,0,13,0,0,0,14,0,0,0,
0,0,0,0,0,0,0,0,0,0,0,0,0,0,0,0,0,0,0,0,
0,0,15,0,0,0,0,0,0,0,0,0,0,0,0,0,0,16,0,0,
0,0,0,0,0,0,0,0,0,0,0,0,0,0,0,0,0,0,0,0,
0,0,0,0,0,0,11,0,0,0,0,0,12,0,0,0,0,0,0,0,
0,0,0,0,0,0,0,0,0,0,0,0,0,0,0,0,0,0,0,0,
0,0,0,0,0,0,0,13,0,0,0,14,0,0,0,0,0,0,0,0,
0,0,0,0,0,0,0,0,0,0,0,0,0,0,0,0,0,0,0,0,
0,0,0,0,0,0,0,0,15,0,0,16,0,0,0,0,0,0,0,0,
0,0,0,0,0,0,0,0,0,0,0,0,0,0,0,0,0,0,0,0,
0,0,0,0,0,0,0,0,0,0,0,0,0,0,0,0,0,0,0,0
    </data>
  </layer>
</map>
